dist/icons/svgs/calendar-days-outline.svg

<svg xmlns="http://www.w3.org/2000/svg" width="24" height="24" fill="currentcolor" class="icon-calendar-days-outline" viewBox="0 0 24 24">
  <path d="M9.1875 2.9375V4.5H14.8125V2.9375C14.8125 2.42969 15.2031 2 15.75 2C16.2578 2 16.6875 2.42969 16.6875 2.9375V4.5H18.25C19.6172 4.5 20.75 5.63281 20.75 7V7.625V9.5V19.5C20.75 20.9062 19.6172 22 18.25 22H5.75C4.34375 22 3.25 20.9062 3.25 19.5V9.5V7.625V7C3.25 5.63281 4.34375 4.5 5.75 4.5H7.3125V2.9375C7.3125 2.42969 7.70312 2 8.25 2C8.75781 2 9.1875 2.42969 9.1875 2.9375ZM5.125 9.5V11.6875H8.25V9.5H5.125ZM5.125 13.5625V16.0625H8.25V13.5625H5.125ZM10.125 13.5625V16.0625H13.875V13.5625H10.125ZM15.75 13.5625V16.0625H18.875V13.5625H15.75ZM18.875 11.6875V9.5H15.75V11.6875H18.875ZM18.875 17.9375H15.75V20.125H18.25C18.5625 20.125 18.875 19.8516 18.875 19.5V17.9375ZM13.875 17.9375H10.125V20.125H13.875V17.9375ZM8.25 17.9375H5.125V19.5C5.125 19.8516 5.39844 20.125 5.75 20.125H8.25V17.9375ZM13.875 11.6875V9.5H10.125V11.6875H13.875Z"/>
</svg>

<svg xmlns="http://www.w3.org/2000/svg" width="24" height="24" fill="currentColor" class="icon-calendar-days-outline" viewBox="0 0 24 24">
  <path d="M9.188 2.938V4.5h5.624V2.938c0-.508.391-.938.938-.938a.95.95 0 0 1 .938.938V4.5h1.562c1.367 0 2.5 1.133 2.5 2.5v12.5c0 1.406-1.133 2.5-2.5 2.5H5.75a2.47 2.47 0 0 1-2.5-2.5V7c0-1.367 1.094-2.5 2.5-2.5h1.563V2.938c0-.508.39-.938.937-.938a.95.95 0 0 1 .938.938M5.125 9.5v2.188H8.25V9.5zm0 4.063v2.5H8.25v-2.5zm5 0v2.5h3.75v-2.5zm5.625 0v2.5h3.125v-2.5zm3.125-1.876V9.5H15.75v2.188zm0 6.25H15.75v2.188h2.5a.64.64 0 0 0 .625-.625zm-5 0h-3.75v2.188h3.75zm-5.625 0H5.125V19.5c0 .352.273.625.625.625h2.5zm5.625-6.25V9.5h-3.75v2.188z"/>
</svg>
